Adwaita++-Light/panel/16/akonaditray.svg

<svg height="16" width="16" xmlns="http://www.w3.org/2000/svg">
  <path d="m5.0019529.00001931c-2.206899 1.27390759-3.571463 3.43175239-3.912109 5.76367189.241385-.1145249.490662-.2168418.746094-.2988281 1.101951-.3536957 2.331193-.459726 3.617187-.4648438 1.7806161-.00709 3.6820931.2250012 5.4667971.5664062-1.389096-2.9981719-3.395849-5.57805789-5.9179691-5.56640619zm4.2402351 1.11718749c1.042747 1.1188808 1.891926 2.5313686 2.585937 4.0292969l.318359.6875c.963016.2195514 1.886754.4562651 2.691407.7089844-.592699-2.7758085-2.802943-4.918935-5.595703-5.4257813zm-3.7851571 4.8828125c-2.458135.009783-4.56471797.4379741-5.45703097 2.0000003 0 4.4180004 3.58169997 8.0000004 8.00000007 8.0000004 4.418 0 8-3.582 8-8.0000004-2.340914-.915391-6.840288-2.0147358-10.5429691-2.0000003z" fill="#444"/>
</svg>

<svg xmlns="http://www.w3.org/2000/svg" width="16" height="16" version="1.1">
 <defs>
  <style id="current-color-scheme" type="text/css">
   .ColorScheme-Text { color:#444444; } .ColorScheme-Highlight { color:#4285f4; }
  </style>
 </defs>
 <path style="fill:currentColor" class="ColorScheme-Text" d="M 5.0019529,1.9307376e-5 C 2.7950539,1.2739269 1.4304899,3.4317717 1.0898439,5.7636912 1.3312289,5.6491663 1.5805059,5.5468494 1.8359379,5.4648631 2.9378889,5.1111674 4.1671309,5.0051371 5.4531249,5.0000193 7.233741,4.9929293 9.135218,5.2250205 10.919922,5.5664255 9.530826,2.5682536 7.524073,-0.01163239 5.0019529,1.9307376e-5 Z M 9.242188,1.1172068 c 1.042747,1.1188808 1.891926,2.5313686 2.585937,4.0292969 l 0.318359,0.6875 C 13.1095,6.0535551 14.033238,6.2902688 14.837891,6.5429881 14.245192,3.7671796 12.034948,1.6240531 9.242188,1.1172068 Z M 5.4570309,6.0000193 C 2.9988959,6.0098023 0.89231293,6.4379934 -6.7796609e-8,8.0000196 -6.7796609e-8,12.41802 3.5816999,16.00002 8,16.00002 c 4.418,0 8,-3.582 8,-8.0000004 C 13.659086,7.0846286 9.159712,5.9852838 5.4570309,6.0000193 Z"/>
</svg>
